src/assets/icons-components/rooms.svg

<svg width="32" height="32" viewBox="0 0 32 32" fill="none" xmlns="http://www.w3.org/2000/svg">
<path fill-rule="evenodd" clip-rule="evenodd" d="M15.25 5.25H26.75V16.75H16.75V26.75H5.25V15.25H15.25V5.25ZM16.75 15.25H25.25V6.75H16.75V15.25ZM15.25 16.75H6.75V25.25H15.25V16.75Z" fill="#2E2B26"/>
</svg>

<svg width="32" height="32" fill="none" xmlns="http://www.w3.org/2000/svg"><path fill-rule="evenodd" clip-rule="evenodd" d="M15.25 5.25h11.5v11.5h-10v10H5.25v-11.5h10v-10Zm1.5 10h8.5v-8.5h-8.5v8.5Zm-1.5 1.5h-8.5v8.5h8.5v-8.5Z" fill="#2E2B26"/></svg>
